X: 43041
T: Wind And Rain, The
R: jig
M: 6/8
K: Amixolydian
~e3 e2f|edB ABc|~d3 ~g2e|fdB ABd|
~e3 e2f|edB ABd|~g2e fdB|1 ABA ABd:|2 ABA A2g||
|:faa aba|afe def|~g2e fed|efe efg|
faa aba|afe def|~g2e fdB|1 ABA A2g:|2 ABA ABd||

